!!!OTL: ES SANGEN DREI ENGEL
!!!ARE: Europa, Mitteleuropa, Deutschland, Sued - Schwarzwald
!!!SCT: E2031B
!!!YEM: Copyright 1995, estate of Helmut Schaffrath.
**kern
*ICvox
*Ivox
*M3/4
*k[b-]
*F:
{4f
=1
4f
4c
4a
=2
4a
4f}
{8.f
16g
=3
4a
4a
4cc
=4
2g}
{4cc
=5
4cc
8dd
8cc
8b-
8a
=6
4b-
8cc
8b-}
{8a
8g
=7
4a
8b-
8a
8g
8f
=8
2f}
==
!!!AGN: geistlich, Wallfahrts - Lied
!!!ONB: ESAC (Essen Associative Code) Database: ERK3
!!!AMT: simple triple
!!!AIN: vox
!!!EED: Helmut Schaffrath
!!!EEV: 1.0
*-
